assets/icons/qvision/motion_photos_off.svg

<svg width="24" height="24" viewBox="0 0 24 24" fill="none" xmlns="http://www.w3.org/2000/svg">
<g clip-path="url(#clip0_147_3585)">
<path d="M20.8399 20.84L3.15989 3.16L1.88989 4.43L3.77989 6.32C2.65989 7.93 1.99989 9.89 1.99989 12C1.99989 17.52 6.47989 22 11.9999 22C14.1099 22 16.0699 21.34 17.6799 20.23L19.5699 22.12L20.8399 20.84ZM11.9999 20C7.58989 20 3.99989 16.41 3.99989 12C3.99989 10.45 4.44989 9 5.21989 7.77L6.67989 9.23C6.24989 10.06 5.99989 11 5.99989 12C5.99989 15.31 8.68989 18 11.9999 18C12.9999 18 13.9399 17.75 14.7699 17.32L16.2299 18.78C14.9999 19.55 13.5499 20 11.9999 20ZM6.31989 3.77C7.92989 2.66 9.88989 2 11.9999 2C17.5199 2 21.9999 6.48 21.9999 12C21.9999 14.11 21.3399 16.07 20.2299 17.68L18.7799 16.23C19.5499 15 19.9999 13.55 19.9999 12C19.9999 7.59 16.4099 4 11.9999 4C10.4499 4 8.99989 4.45 7.76989 5.22L6.31989 3.77ZM17.9999 12C17.9999 13 17.7499 13.94 17.3199 14.77L9.22989 6.68C10.0599 6.25 10.9999 6 11.9999 6C15.3099 6 17.9999 8.69 17.9999 12Z" fill="#323232"/>
</g>
<defs>
<clipPath id="clip0_147_3585">
<rect width="24" height="24" fill="white"/>
</clipPath>
</defs>
</svg>

<svg xmlns="http://www.w3.org/2000/svg" height="24" viewBox="0 0 24 24" width="24"><path d="M0 0h24v24H0z" fill="none"/><path d="M20.84 20.84L3.16 3.16 1.89 4.43l1.89 1.89C2.66 7.93 2 9.89 2 12c0 5.52 4.48 10 10 10 2.11 0 4.07-.66 5.68-1.77l1.89 1.89 1.27-1.28zM12 20c-4.41 0-8-3.59-8-8 0-1.55.45-3 1.22-4.23l1.46 1.46C6.25 10.06 6 11 6 12c0 3.31 2.69 6 6 6 1 0 1.94-.25 2.77-.68l1.46 1.46C15 19.55 13.55 20 12 20zM6.32 3.77C7.93 2.66 9.89 2 12 2c5.52 0 10 4.48 10 10 0 2.11-.66 4.07-1.77 5.68l-1.45-1.45C19.55 15 20 13.55 20 12c0-4.41-3.59-8-8-8-1.55 0-3 .45-4.23 1.22L6.32 3.77zM18 12c0 1-.25 1.94-.68 2.77L9.23 6.68C10.06 6.25 11 6 12 6c3.31 0 6 2.69 6 6z"/></svg>
